X:331
T:Dusky Night
S:Bruce & Emmett's Drummers and Fifers Guide (1862), p. 33
M:6/8
L:1/8
Q:Allegro
K:D
%%MIDI program 72
%%MIDI transpose 8
%%MIDI ratio 3 1
(3(A/B/c/)|d2d A2G|FEF DFA|B2A G2F|F3 E2A|A^GA BAB|cdc A2A|
dcd ede|faf d2A|Bcd efg|Bed cBA|d2F A2A|FD2 zz||:D/F/|A2A ABA|
A3 Az (3(A/B/c/)|d2d dfe|d3- dz A|Bcd efg|Bed cBA|d2F A2A|FD2zz:|
